img/icons/categories/02.svg

<svg width="49" height="60" viewBox="0 0 49 60" fill="none" xmlns="http://www.w3.org/2000/svg">
<path d="M36.4856 27.9902H11.5298C11.2264 27.9902 11.0747 27.7626 11.0747 27.5351V18.3568C11.0747 18.1293 11.2264 17.9776 11.3781 17.9017L19.9495 14.5642C20.1013 14.4883 20.3288 14.5642 20.4805 14.64L23.8939 17.9017L27.6107 14.5642C27.7624 14.4124 27.9141 14.4124 28.1417 14.4883L36.7131 17.8258C36.8648 17.9017 37.0165 18.0534 37.0165 18.281V27.4592C36.9407 27.7626 36.7131 27.9902 36.4856 27.9902ZM12.0608 27.0041H36.0305V18.6602L28.0659 15.5502L24.2732 18.9636C24.0456 19.1154 23.8181 19.1154 23.5905 18.9636L20.0254 15.5502L12.0608 18.6602V27.0041Z" fill="#282828"/>
<path d="M32.2379 27.9895H15.7019C15.3985 27.9895 15.1709 27.762 15.1709 27.5344V21.7696C15.1709 21.4662 15.3985 21.3145 15.7019 21.3145C16.0053 21.3145 16.2329 21.542 16.2329 21.7696V27.0035H31.7828V21.7696C31.7828 21.4662 32.0103 21.3145 32.3138 21.3145C32.6172 21.3145 32.8447 21.542 32.8447 21.7696V27.5344C32.7689 27.762 32.5413 27.9895 32.2379 27.9895Z" fill="#282828"/>
<path d="M28.1418 19.8732H19.8738C19.5703 19.8732 19.3428 19.6457 19.3428 19.4181V15.0186C19.3428 14.7152 19.5703 14.5635 19.8738 14.5635C20.1772 14.5635 20.4047 14.791 20.4047 15.0186V18.8871H27.6866V15.0186C27.6866 14.7152 27.9142 14.5635 28.2176 14.5635C28.521 14.5635 28.7486 14.791 28.7486 15.0186V19.4181C28.5969 19.6457 28.3693 19.8732 28.1418 19.8732Z" fill="#282828"/>
<path d="M25.2592 22.7556H22.7561C22.4527 22.7556 22.2251 22.528 22.2251 22.3004V19.418C22.2251 19.1146 22.4527 18.9629 22.7561 18.9629H25.2592C25.5626 18.9629 25.7902 19.1905 25.7902 19.418V22.3004C25.7143 22.528 25.4868 22.7556 25.2592 22.7556ZM23.2871 21.7695H24.8041V19.8731H23.2871V21.7695Z" fill="#282828"/>
<path d="M26.2453 27.9895H21.4665C21.3148 27.9895 21.1631 27.9137 21.0872 27.8378C21.0114 27.6861 20.9355 27.5344 21.0114 27.3827L22.3009 22.1488C22.3768 21.9212 22.5285 21.7695 22.756 21.7695H25.2592C25.4867 21.7695 25.7143 21.9212 25.7143 22.1488L26.7004 27.3827C26.7004 27.5344 26.7004 27.6861 26.6245 27.7619C26.5487 27.9137 26.397 27.9895 26.2453 27.9895ZM22.1492 27.0034H25.7143L24.8799 22.7556H23.2111L22.1492 27.0034Z" fill="#282828"/>
<path d="M24.1214 13.3502C20.4804 13.3502 17.4463 10.3919 17.4463 6.67509C17.4463 3.03413 20.4046 0 24.1214 0C27.8382 0 30.7965 2.95828 30.7965 6.67509C30.7965 10.3161 27.8382 13.3502 24.1214 13.3502ZM24.1214 0.986093C21.0114 0.986093 18.4324 3.56511 18.4324 6.67509C18.4324 9.78508 21.0114 12.3641 24.1214 12.3641C27.2314 12.3641 29.8104 9.78508 29.8104 6.67509C29.8104 3.56511 27.2314 0.986093 24.1214 0.986093Z" fill="#282828"/>
<path d="M28.8241 5.76478C27.1553 5.76478 25.6382 5.30966 24.5004 4.39942C24.2729 4.24771 24.2729 3.9443 24.4246 3.71674C24.5763 3.48918 24.8797 3.48918 25.1073 3.64089C26.3209 4.62698 28.2931 5.00625 30.1136 4.70283C30.417 4.62698 30.6445 4.85454 30.7204 5.0821C30.7963 5.38551 30.5687 5.61307 30.3411 5.68893C29.7343 5.68893 29.2792 5.76478 28.8241 5.76478Z" fill="#282828"/>
<path d="M20.8597 5.6134C19.8736 5.6134 18.9634 5.4617 18.0531 5.08243C17.8256 5.00658 17.6739 4.70316 17.7497 4.4756C17.8256 4.24804 18.129 4.09634 18.3565 4.17219C19.1151 4.4756 19.8736 4.62731 20.7838 4.62731C23.5904 4.62731 25.7902 3.11024 25.7902 1.21391C25.7902 0.910496 26.0177 0.758789 26.3211 0.758789C26.6246 0.758789 26.8521 0.986349 26.8521 1.21391C26.8521 3.64122 24.1972 5.6134 20.8597 5.6134Z" fill="#282828"/>
<path d="M47.6359 60.0002C47.3325 60.0002 47.1049 59.7726 47.1049 59.545V57.2694C47.1049 55.449 45.6637 54.0077 43.8432 54.0077H38.3818C36.5613 54.0077 35.1201 55.449 35.1201 57.2694V59.545C35.1201 59.8484 34.8925 60.0002 34.5891 60.0002C34.2857 60.0002 34.0582 59.7726 34.0582 59.545V57.2694C34.0582 54.918 35.9545 53.0216 38.3059 53.0216H43.7674C46.1188 53.0216 48.0152 54.918 48.0152 57.2694V59.545C48.1669 59.7726 47.9393 60.0002 47.6359 60.0002ZM29.8104 60.0002C29.507 60.0002 29.2794 59.7726 29.2794 59.545V57.2694C29.2794 55.449 27.8382 54.0077 26.0177 54.0077H20.5563C18.7358 54.0077 17.2946 55.449 17.2946 57.2694V59.545C17.2946 59.8484 17.067 60.0002 16.7636 60.0002C16.4602 60.0002 16.2326 59.7726 16.2326 59.545V57.2694C16.2326 54.918 18.1289 53.0216 20.4804 53.0216H25.9419C28.2933 53.0216 30.1896 54.918 30.1896 57.2694V59.545C30.3413 59.7726 30.1138 60.0002 29.8104 60.0002ZM13.3502 60.0002C13.0468 60.0002 12.8951 59.7726 12.8951 59.545V57.2694C12.8951 55.449 11.4539 54.0077 9.63338 54.0077H4.17193C2.35145 54.0077 0.910249 55.449 0.910249 57.2694V59.545C0.910249 59.8484 0.682685 60.0002 0.455125 60.0002C0.227565 60.0002 0 59.7726 0 59.545V57.2694C0 54.918 1.89634 53.0216 4.24779 53.0216H9.70923C12.0607 53.0216 13.957 54.918 13.957 57.2694V59.545C13.8053 59.7726 13.5778 60.0002 13.3502 60.0002ZM41.0367 52.2631C38.8369 52.2631 37.0164 50.4426 37.0164 48.2429C37.0164 46.0431 38.8369 44.2227 41.0367 44.2227C43.2364 44.2227 45.0569 46.0431 45.0569 48.2429C45.0569 50.5185 43.3123 52.2631 41.0367 52.2631ZM38.0025 48.5463C38.1542 50.1392 39.4437 51.3529 41.0367 51.3529C42.7054 51.3529 44.0708 49.9875 44.0708 48.3187C44.0708 48.167 44.0708 48.0912 44.0708 48.0153C43.2364 48.0912 42.3262 47.8636 41.5676 47.4085C40.6574 48.3187 39.292 48.7739 38.0025 48.5463ZM38.0784 47.5602C38.2301 47.5602 38.4576 47.6361 38.6852 47.6361C39.6713 47.6361 40.5057 47.1809 41.1125 46.4224C41.1884 46.3466 41.3401 46.2707 41.4159 46.1948C41.5676 46.1948 41.7193 46.1948 41.7952 46.2707C42.3262 46.7258 43.0847 46.9534 43.7674 46.9534C43.3123 45.9673 42.2503 45.2087 41.0367 45.2087C39.6713 45.2087 38.4577 46.1948 38.0784 47.5602ZM23.287 52.2631C21.0872 52.2631 19.2668 50.4426 19.2668 48.2429C19.2668 46.0431 21.0872 44.2227 23.287 44.2227C25.4867 44.2227 27.3072 46.0431 27.3072 48.2429C27.3072 50.5185 25.4867 52.2631 23.287 52.2631ZM20.2529 48.5463C20.4046 50.1392 21.6941 51.3529 23.287 51.3529C24.9558 51.3529 26.3211 49.9875 26.3211 48.3187C26.3211 48.167 26.3211 48.0912 26.3211 48.0153C25.4867 48.0912 24.5765 47.8636 23.818 47.4085C22.9077 48.2429 21.4665 48.698 20.2529 48.5463ZM20.3287 47.5602C20.4804 47.5602 20.708 47.6361 20.9355 47.6361C21.9216 47.6361 22.8319 47.1809 23.3628 46.4224C23.4387 46.3466 23.5904 46.2707 23.6663 46.1948C23.818 46.1948 23.9697 46.1948 24.0455 46.2707C24.5765 46.7258 25.335 46.9534 26.0177 46.9534C25.5626 45.9673 24.5006 45.2087 23.287 45.2087C21.8458 45.2087 20.6321 46.1948 20.3287 47.5602ZM6.75095 52.2631C4.55121 52.2631 2.73073 50.4426 2.73073 48.2429C2.73073 46.0431 4.55121 44.2227 6.75095 44.2227C8.9507 44.2227 10.7712 46.0431 10.7712 48.2429C10.7712 50.5185 8.9507 52.2631 6.75095 52.2631ZM3.71682 48.5463C3.86853 50.1392 5.15803 51.3529 6.75095 51.3529C8.41973 51.3529 9.78509 49.9875 9.78509 48.3187C9.78509 48.167 9.78509 48.0912 9.78509 48.0153C8.9507 48.0912 8.04046 47.8636 7.28193 47.4085C6.52339 48.167 5.46144 48.6221 4.3995 48.6221C4.17194 48.5463 3.94438 48.5463 3.71682 48.5463ZM3.79267 47.5602C4.02023 47.5602 4.17194 47.6361 4.3995 47.6361C5.38559 47.6361 6.21997 47.1809 6.8268 46.4224C6.90265 46.3466 7.05437 46.2707 7.13022 46.1948C7.28193 46.1948 7.43363 46.1948 7.50949 46.2707C8.04046 46.7258 8.79899 46.9534 9.48167 46.9534C9.02655 45.9673 7.96461 45.2087 6.75095 45.2087C5.30974 45.2087 4.17193 46.1948 3.79267 47.5602Z" fill="#C47A2D"/>
<path d="M41.2643 43.312C40.9609 43.312 40.7333 43.0844 40.7333 42.8569V36.1059L7.20614 35.6508V42.6293C7.20614 42.9327 6.97858 43.0844 6.75102 43.0844C6.52346 43.0844 6.2959 42.8569 6.2959 42.6293V35.1198C6.2959 34.9681 6.37175 34.8923 6.4476 34.7406C6.52346 34.6647 6.67516 34.5889 6.82687 34.5889L41.3401 34.9681C41.6436 34.9681 41.7953 35.1957 41.7953 35.4233V42.7052C41.7953 43.0844 41.5677 43.312 41.2643 43.312Z" fill="#282828"/>
<path d="M23.8938 39.4442C23.5904 39.4442 23.3628 39.2166 23.3628 38.9891V27.5352C23.3628 27.2318 23.5904 27.0801 23.8938 27.0801C24.1972 27.0801 24.4247 27.3076 24.4247 27.5352V38.9891C24.3489 39.2166 24.1213 39.4442 23.8938 39.4442Z" fill="#282828"/>
</svg>

<svg width="49" height="60" fill="none" xmlns="http://www.w3.org/2000/svg"><path d="M36.486 27.99H11.53c-.304 0-.455-.227-.455-.455v-9.178a.51.51 0 01.303-.455l8.572-3.338c.151-.076.379 0 .53.076l3.414 3.262 3.717-3.338c.151-.152.303-.152.53-.076l8.572 3.338c.152.076.303.227.303.455v9.178c-.075.304-.303.531-.53.531zm-24.425-.986h23.97V18.66l-7.965-3.11-3.793 3.414a.569.569 0 01-.683 0l-3.565-3.414-7.964 3.11v8.344z" fill="#282828"/><path d="M32.238 27.99H15.702c-.303 0-.531-.228-.531-.456V21.77c0-.304.228-.456.53-.456.304 0 .532.228.532.456v5.233h15.55V21.77c0-.304.227-.456.53-.456.304 0 .532.228.532.456v5.764c-.076.228-.304.456-.607.456zm-4.096-8.117h-8.268c-.304 0-.531-.227-.531-.455v-4.4c0-.303.227-.455.53-.455.304 0 .532.228.532.456v3.868h7.282V15.02c0-.304.227-.456.53-.456.304 0 .532.228.532.456v4.4c-.152.227-.38.454-.607.454z" fill="#282828"/><path d="M25.26 22.756h-2.504c-.303 0-.53-.228-.53-.456v-2.882c0-.303.227-.455.53-.455h2.503c.304 0 .531.227.531.455V22.3c-.076.228-.303.456-.53.456zm-1.973-.986h1.517v-1.897h-1.517v1.896z" fill="#282828"/><path d="M26.245 27.99h-4.779a.58.58 0 01-.379-.152c-.076-.152-.151-.304-.076-.455l1.29-5.234c.076-.228.228-.38.455-.38h2.503c.228 0 .455.152.455.38l.986 5.234c0 .151 0 .303-.075.379a.417.417 0 01-.38.227zm-4.096-.987h3.565l-.834-4.247h-1.67l-1.062 4.247zm1.972-13.653c-3.64 0-6.675-2.958-6.675-6.675 0-3.64 2.959-6.675 6.675-6.675a6.637 6.637 0 016.676 6.675c0 3.641-2.959 6.675-6.676 6.675zm0-12.364c-3.11 0-5.689 2.58-5.689 5.69 0 3.11 2.58 5.688 5.69 5.688 3.11 0 5.688-2.579 5.688-5.689S27.231.986 24.121.986z" fill="#282828"/><path d="M28.824 5.765c-1.669 0-3.186-.455-4.324-1.366-.227-.151-.227-.455-.075-.682.151-.228.455-.228.682-.076 1.214.986 3.186 1.365 5.007 1.062.303-.076.53.152.606.38.076.303-.151.53-.379.606-.607 0-1.062.076-1.517.076z" fill="#282828"/><path d="M20.86 5.613c-.986 0-1.897-.151-2.807-.53-.227-.076-.38-.38-.303-.607.076-.228.379-.38.607-.304a6.29 6.29 0 002.427.455c2.806 0 5.006-1.517 5.006-3.413 0-.304.228-.455.531-.455.304 0 .531.227.531.455 0 2.427-2.655 4.4-5.992 4.4z" fill="#282828"/><path d="M47.636 60c-.303 0-.531-.227-.531-.455v-2.276a3.238 3.238 0 00-3.262-3.261h-5.461a3.238 3.238 0 00-3.262 3.261v2.276c0 .303-.227.455-.53.455-.304 0-.532-.227-.532-.455v-2.276a4.24 4.24 0 014.248-4.247h5.461a4.24 4.24 0 014.248 4.247v2.276c.152.228-.076.455-.38.455zM29.81 60c-.303 0-.53-.227-.53-.455v-2.276a3.238 3.238 0 00-3.262-3.261h-5.462a3.238 3.238 0 00-3.261 3.261v2.276c0 .303-.228.455-.531.455-.304 0-.531-.227-.531-.455v-2.276a4.24 4.24 0 014.247-4.247h5.462a4.24 4.24 0 014.248 4.247v2.276c.151.228-.076.455-.38.455zm-16.46 0c-.303 0-.455-.227-.455-.455v-2.276a3.238 3.238 0 00-3.262-3.261H4.172A3.238 3.238 0 00.91 57.269v2.276c0 .303-.227.455-.455.455A.49.49 0 010 59.545v-2.276a4.24 4.24 0 014.248-4.247h5.461a4.24 4.24 0 014.248 4.247v2.276c-.152.228-.38.455-.607.455zm27.687-7.737c-2.2 0-4.02-1.82-4.02-4.02 0-2.2 1.82-4.02 4.02-4.02 2.2 0 4.02 1.82 4.02 4.02 0 2.276-1.745 4.02-4.02 4.02zm-3.035-3.717c.152 1.593 1.442 2.807 3.035 2.807a3.043 3.043 0 003.034-3.034v-.304c-.835.076-1.745-.151-2.503-.607-.91.91-2.276 1.366-3.566 1.138zm.076-.986c.152 0 .38.076.607.076.986 0 1.82-.455 2.427-1.214.076-.075.228-.151.304-.227.152 0 .303 0 .38.076.53.455 1.289.682 1.971.682-.455-.986-1.517-1.744-2.73-1.744-1.366 0-2.58.986-2.959 2.351zm-14.791 4.703c-2.2 0-4.02-1.82-4.02-4.02 0-2.2 1.82-4.02 4.02-4.02 2.2 0 4.02 1.82 4.02 4.02 0 2.276-1.82 4.02-4.02 4.02zm-3.034-3.717c.152 1.593 1.441 2.807 3.034 2.807a3.043 3.043 0 003.034-3.034v-.304c-.834.076-1.745-.151-2.503-.607-.91.835-2.352 1.29-3.565 1.138zm.076-.986c.151 0 .379.076.607.076.986 0 1.896-.455 2.427-1.214.076-.075.227-.151.303-.227.152 0 .304 0 .38.076.53.455 1.289.682 1.972.682a3.055 3.055 0 00-2.731-1.744 3.012 3.012 0 00-2.958 2.351zM6.75 52.263c-2.2 0-4.02-1.82-4.02-4.02 0-2.2 1.82-4.02 4.02-4.02 2.2 0 4.02 1.82 4.02 4.02 0 2.276-1.82 4.02-4.02 4.02zm-3.034-3.717c.152 1.593 1.441 2.807 3.034 2.807a3.043 3.043 0 003.034-3.034v-.304c-.834.076-1.745-.151-2.503-.607-.759.759-1.82 1.214-2.883 1.214-.227-.076-.455-.076-.682-.076zm.076-.986c.227 0 .379.076.606.076.987 0 1.821-.455 2.428-1.214.076-.075.227-.151.303-.227.152 0 .304 0 .38.076.53.455 1.289.682 1.972.682a3.055 3.055 0 00-2.731-1.744c-1.441 0-2.58.986-2.958 2.351z" fill="#C47A2D"/><path d="M41.264 43.312c-.303 0-.53-.228-.53-.455v-6.751L7.205 35.65v6.978c0 .304-.227.455-.455.455a.49.49 0 01-.455-.455v-7.51c0-.15.076-.227.152-.378a.58.58 0 01.379-.152l34.513.38c.304 0 .455.227.455.454v7.282c0 .38-.227.607-.53.607z" fill="#282828"/><path d="M23.894 39.444c-.304 0-.531-.227-.531-.455V27.535c0-.303.227-.455.53-.455.304 0 .532.228.532.455V38.99c-.076.228-.304.455-.531.455z" fill="#282828"/></svg>
